packages/assets/static/images/icons/sign-language.svg

<svg width="24" height="24" viewBox="0 0 24 24" xmlns="http://www.w3.org/2000/svg" fill="currentColor" aria-hidden="true"> <g clip-path="url(#clip0_2079_3758)"> <path d="M6.16721 1.68994C6.32189 1.68994 6.47752 1.74713 6.59846 1.86432C6.84127 2.09869 6.83939 2.4915 6.61439 2.74275C5.85314 3.58932 5.26721 4.48369 4.85564 5.43338C4.77971 5.60963 4.92033 5.76244 5.07127 5.76244C5.13221 5.76244 5.19596 5.73713 5.24658 5.67807C6.41002 4.32244 7.90439 3.31744 9.75408 2.63963C9.82439 2.61338 9.89658 2.60119 9.96783 2.60119C10.2275 2.60119 10.4713 2.76525 10.5585 3.02869C10.6644 3.35025 10.4769 3.69713 10.16 3.81338C8.71908 4.34494 7.52189 5.1015 6.55346 6.09807C6.40721 6.249 6.51596 6.49369 6.71939 6.49369C6.72596 6.49369 6.73346 6.49369 6.74002 6.49369C6.84783 6.48525 6.95471 6.48057 7.06252 6.48057C8.09002 6.48057 9.11846 6.8715 9.90127 7.65432C11.0113 8.76244 11.3816 10.4312 10.8453 11.9049C10.7535 12.1571 10.5153 12.3137 10.2613 12.3137C10.1816 12.3137 10.101 12.2987 10.0222 12.2659C9.71377 12.1374 9.57127 11.7774 9.68377 11.4624C10.0466 10.4453 9.78783 9.29682 9.02283 8.53275C8.48189 7.99182 7.77221 7.72182 7.06252 7.72182C6.20846 7.72182 5.35346 8.11369 4.79471 8.8965C4.53596 9.25932 4.37002 9.684 4.31377 10.1265C4.20221 11.0003 4.49283 11.8431 5.10221 12.4524C5.63752 12.9887 6.35939 13.2756 7.09439 13.2756C7.41502 13.2756 7.73846 13.2203 8.04971 13.1078C8.12002 13.0824 8.19127 13.0703 8.26252 13.0703C8.53908 13.0703 8.79689 13.2559 8.86721 13.5484C8.94314 13.8615 8.75096 14.1774 8.44721 14.2853C8.00752 14.4418 7.55096 14.5178 7.09721 14.5178C6.03783 14.5178 4.99533 14.1034 4.22471 13.3309C4.01658 13.1228 3.83471 12.8949 3.68002 12.6531C3.63408 12.6156 3.59189 12.5706 3.55721 12.519C1.65221 9.66057 1.17033 6.68682 2.08252 3.42713C2.15939 3.15244 2.40877 2.97338 2.68064 2.97338C2.74252 2.97338 2.80627 2.98275 2.86814 3.00244C3.18971 3.10369 3.36408 3.45619 3.27408 3.7815C3.08846 4.44994 2.96846 5.10432 2.91502 5.74744C2.90189 5.90588 3.02752 5.99963 3.15221 5.99963C3.24314 5.99963 3.33314 5.94994 3.36877 5.84025C3.82627 4.4265 4.60346 3.11775 5.70689 1.89619C5.82971 1.76025 5.99846 1.69088 6.16814 1.69088M6.16814 0.189941C5.56908 0.189941 4.99439 0.444941 4.59314 0.889316C4.32221 1.19025 4.06721 1.49775 3.82908 1.81088C3.67252 1.70963 3.50189 1.629 3.31908 1.57182C3.11189 1.50619 2.89721 1.47338 2.68064 1.47338C1.73377 1.47338 0.893769 2.10994 0.638769 3.02213C0.124082 4.85682 0.00501929 6.65307 0.282519 8.364C0.559082 10.0712 1.24064 11.7493 2.30846 13.3515C2.37127 13.4453 2.44064 13.5343 2.51846 13.6168C2.71064 13.8953 2.92627 14.1559 3.16346 14.3921C4.19471 15.4253 5.62908 16.0187 7.09721 16.0187C7.73096 16.0187 8.35439 15.9109 8.94971 15.6999C9.78689 15.4028 10.3335 14.6471 10.3813 13.8118C11.2213 13.764 11.9656 13.2165 12.2553 12.4187C12.9903 10.3984 12.4822 8.11275 10.9616 6.594C10.5819 6.21432 10.1563 5.8965 9.69596 5.64619C10.0053 5.49057 10.3325 5.34994 10.6794 5.22244C11.7697 4.82025 12.3425 3.65119 11.9835 2.56088C11.6966 1.68807 10.8866 1.10119 9.96783 1.10119C9.71846 1.10119 9.47283 1.14525 9.23846 1.23057C8.87752 1.36275 8.52689 1.50713 8.18846 1.66369C8.08533 1.34025 7.90252 1.03744 7.64096 0.784316C7.24346 0.400879 6.72033 0.189941 6.16814 0.189941ZM7.09533 11.7765C6.74658 11.7765 6.40814 11.6368 6.16533 11.394C5.87939 11.1081 5.75096 10.7265 5.80346 10.3178C5.82877 10.1199 5.90283 9.93057 6.01721 9.77025C6.26471 9.42338 6.64627 9.22463 7.06346 9.22463C7.40377 9.22463 7.72346 9.35682 7.96346 9.59588C8.31971 9.95213 8.44064 10.4874 8.27189 10.9609C8.19971 11.1634 8.15939 11.3706 8.14814 11.5749C7.93908 11.5862 7.73471 11.6284 7.53689 11.7006C7.39627 11.7521 7.24721 11.7765 7.09533 11.7765Z"/> <path d="M16.9025 9.4815C17.9619 9.4815 19.0044 9.89588 19.775 10.6684C19.9841 10.8774 20.1631 11.1034 20.3169 11.3424C20.3647 11.3809 20.4069 11.4268 20.4425 11.4812C22.3475 14.3396 22.8294 17.3134 21.9163 20.5731C21.8394 20.8478 21.59 21.0268 21.3181 21.0268C21.2628 21.0268 21.2066 21.0193 21.1503 21.0034C20.8194 20.9106 20.6272 20.5684 20.72 20.2374C20.9188 19.5278 21.0425 18.8321 21.0922 18.1506C21.1025 18.0006 20.9863 17.9143 20.8691 17.9143C20.781 17.9143 20.6928 17.9631 20.6591 18.0709C20.2053 19.5193 19.4188 20.8571 18.2928 22.1049C18.17 22.2409 18.0013 22.3103 17.8316 22.3103C17.6816 22.3103 17.5306 22.2559 17.4116 22.1462C17.1585 21.9137 17.1547 21.5124 17.3835 21.2574C18.1653 20.3874 18.7616 19.4687 19.175 18.4909C19.2444 18.3259 19.1103 18.1834 18.9669 18.1834C18.9078 18.1834 18.8478 18.2078 18.801 18.264C17.63 19.6487 16.1197 20.6724 14.2447 21.3606C14.1744 21.3868 14.1022 21.399 14.031 21.399C13.7525 21.399 13.4928 21.2106 13.4244 20.9143C13.3531 20.6068 13.5388 20.2965 13.8341 20.1878C15.2881 19.6524 16.4947 18.8874 17.4678 17.8787C17.6047 17.7362 17.4969 17.5056 17.3056 17.5056C17.2991 17.5056 17.2916 17.5056 17.285 17.5056C17.1697 17.5159 17.0535 17.5206 16.9353 17.5206C15.8628 17.5206 14.855 17.1034 14.0966 16.3449C12.9866 15.2368 12.6163 13.569 13.1525 12.0943C13.2444 11.8421 13.4825 11.6856 13.7366 11.6856C13.8163 11.6856 13.8969 11.7006 13.9756 11.7334C14.2841 11.8609 14.4266 12.2218 14.315 12.5368C13.9522 13.554 14.211 14.7024 14.976 15.4656C15.5 15.9896 16.1956 16.2774 16.9363 16.2774C17.8447 16.2774 18.6866 15.8434 19.2247 15.0728C19.445 14.7568 19.595 14.3949 19.6625 14.0153C19.8266 13.0899 19.5388 12.1881 18.8956 11.5459C18.3613 11.0096 17.6385 10.7228 16.9035 10.7228C16.5828 10.7228 16.2594 10.7781 15.9481 10.8906C15.8778 10.9159 15.8066 10.9281 15.7353 10.9281C15.4588 10.9281 15.201 10.7424 15.1306 10.4499C15.0547 10.1349 15.2497 9.819 15.5544 9.71119C15.9931 9.55557 16.4488 9.48057 16.9006 9.48057M16.9025 7.9815C16.2706 7.9815 15.6491 8.08838 15.0547 8.29838C14.2147 8.5965 13.6663 9.35213 13.6185 10.1884C12.7785 10.2362 12.0341 10.7837 11.7444 11.5815C11.0094 13.6018 11.5175 15.8884 13.0381 17.4062C13.4178 17.7859 13.8435 18.1037 14.3028 18.354C13.9925 18.5096 13.6635 18.6512 13.3166 18.7796C12.306 19.1518 11.7247 20.214 11.9638 21.2509C12.1878 22.2212 13.0381 22.899 14.0319 22.899C14.2813 22.899 14.5269 22.8549 14.7613 22.7696C15.1241 22.6365 15.4756 22.4912 15.816 22.3346C15.9228 22.6759 16.1169 22.9946 16.3972 23.2515C16.79 23.6124 17.2991 23.8103 17.8325 23.8103C18.4316 23.8103 19.0063 23.5553 19.4075 23.1099C19.6785 22.809 19.9335 22.5024 20.1706 22.1893C20.3469 22.3018 20.54 22.3899 20.7472 22.4471C20.9338 22.4996 21.126 22.5259 21.3191 22.5259C22.266 22.5259 23.106 21.8884 23.3619 20.9762C23.8756 19.1424 23.9947 17.3462 23.7181 15.6353C23.4416 13.9281 22.76 12.2499 21.6922 10.6478C21.6275 10.5512 21.5563 10.4612 21.4775 10.3768C21.2872 10.1003 21.0725 9.84244 20.8372 9.60619C19.806 8.57307 18.3716 7.97963 16.9035 7.97963L16.9025 7.9815ZM15.8516 12.4271C16.0597 12.4159 16.265 12.3737 16.4628 12.3015C16.6035 12.2499 16.7525 12.2246 16.9044 12.2246C17.2531 12.2246 17.5916 12.3643 17.8344 12.6071C18.1391 12.9118 18.2628 13.3187 18.186 13.7546C18.1569 13.9187 18.0913 14.0781 17.9956 14.2149C17.7416 14.5787 17.3656 14.7784 16.9372 14.7784C16.5922 14.7784 16.2819 14.649 16.0372 14.4053C15.68 14.049 15.56 13.5137 15.7288 13.0403C15.801 12.8378 15.8413 12.6306 15.8525 12.4262L15.8516 12.4271Z"/> </g> <defs> <clipPath id="clip0_2079_3758"> <rect width="24" height="24"/> </clipPath> </defs> </svg>

<svg viewBox="0 0 24 24" xmlns="http://www.w3.org/2000/svg" aria-hidden="true" fill="currentColor"><g clip-path="url(#a)"><path d="M6.167 1.69c.155 0 .31.057.431.174.243.235.241.627.016.879q-1.14 1.267-1.758 2.69c-.076.177.064.33.215.33.061 0 .125-.026.176-.085C6.41 4.322 7.904 3.318 9.754 2.64a.622.622 0 0 1 .804.39c.106.32-.081.667-.398.783-1.44.532-2.638 1.288-3.607 2.285a.232.232 0 0 0 .166.396h.021a4.002 4.002 0 0 1 3.161 1.16 4.06 4.06 0 0 1 .944 4.25.62.62 0 0 1-.823.362.637.637 0 0 1-.338-.804 2.82 2.82 0 0 0-.661-2.93c-.541-.54-1.25-.81-1.96-.81a2.77 2.77 0 0 0-1.96 4.73 2.82 2.82 0 0 0 2.947.656.623.623 0 0 1 .817.44c.076.313-.116.63-.42.737a4.061 4.061 0 0 1-4.767-1.632.6.6 0 0 1-.123-.134C1.652 9.661 1.17 6.687 2.083 3.427a.62.62 0 0 1 .785-.425.637.637 0 0 1 .406.78 10.6 10.6 0 0 0-.359 1.965c-.013.159.113.253.237.253.091 0 .181-.05.217-.16.457-1.413 1.234-2.722 2.338-3.944a.62.62 0 0 1 .461-.205m0-1.501c-.599 0-1.174.255-1.575.7q-.406.451-.764.92a2.11 2.11 0 0 0-1.148-.338c-.947.001-1.787.638-2.042 1.55C.124 4.857.005 6.653.283 8.364c.276 1.707.958 3.385 2.025 4.987q.095.141.21.266.29.419.645.775a5.6 5.6 0 0 0 3.934 1.627c.634 0 1.257-.108 1.853-.32a2.14 2.14 0 0 0 1.431-1.887 2.13 2.13 0 0 0 1.874-1.393 5.57 5.57 0 0 0-1.293-5.825 5.5 5.5 0 0 0-1.266-.948 9 9 0 0 1 .983-.424 2.126 2.126 0 0 0 1.304-2.661 2.12 2.12 0 0 0-2.745-1.33q-.54.198-1.05.433a2.1 2.1 0 0 0-.547-.88A2.1 2.1 0 0 0 6.168.19m.927 11.587c-.348 0-.687-.14-.93-.383a1.26 1.26 0 0 1-.362-1.076 1.275 1.275 0 0 1 2.16-.722c.357.356.478.891.309 1.365-.072.202-.113.41-.124.614q-.314.017-.611.126a1.3 1.3 0 0 1-.442.075"/><path d="M16.903 9.482a4.06 4.06 0 0 1 3.414 1.86q.072.058.125.14c1.906 2.858 2.387 5.831 1.474 9.091a.621.621 0 1 1-1.196-.336q.299-1.065.372-2.086c.01-.15-.106-.237-.223-.237a.214.214 0 0 0-.21.157c-.454 1.448-1.24 2.786-2.366 4.034a.62.62 0 0 1-.881.041.637.637 0 0 1-.028-.889c.781-.87 1.378-1.788 1.791-2.766.07-.165-.065-.308-.208-.308-.06 0-.12.025-.166.081-1.171 1.385-2.681 2.408-4.556 3.097a.622.622 0 0 1-.82-.446.634.634 0 0 1 .41-.727c1.453-.536 2.66-1.3 3.633-2.31.137-.142.029-.372-.162-.372h-.021q-.173.015-.35.015a3.99 3.99 0 0 1-2.838-1.176 4.06 4.06 0 0 1-.944-4.25.62.62 0 0 1 .823-.362c.308.128.45.489.339.804a2.82 2.82 0 0 0 .661 2.929c.524.524 1.22.811 1.96.811a2.77 2.77 0 0 0 1.96-4.731 2.81 2.81 0 0 0-2.948-.655.621.621 0 0 1-.818-.44c-.075-.316.12-.632.424-.74.44-.155.895-.23 1.347-.23m.002-1.5c-.632 0-1.254.107-1.848.317a2.14 2.14 0 0 0-1.437 1.89 2.13 2.13 0 0 0-1.874 1.393 5.57 5.57 0 0 0 2.559 6.773q-.466.233-.986.426a2.135 2.135 0 0 0-1.353 2.47 2.114 2.114 0 0 0 2.797 1.52 14 14 0 0 0 1.055-.435 2.114 2.114 0 0 0 2.016 1.476c.6 0 1.174-.256 1.576-.701q.406-.452.763-.92a2.1 2.1 0 0 0 1.148.336 2.13 2.13 0 0 0 2.043-1.55c.514-1.834.633-3.63.356-5.34-.276-1.708-.958-3.386-2.026-4.988a2 2 0 0 0-.215-.271 5.6 5.6 0 0 0-.64-.77 5.6 5.6 0 0 0-3.933-1.627zm-1.051 4.446a2.1 2.1 0 0 0 .61-.125q.213-.077.442-.077c.35 0 .688.14.93.382.305.305.429.712.352 1.148a1.264 1.264 0 0 1-1.249 1.024 1.25 1.25 0 0 1-.9-.374 1.31 1.31 0 0 1-.308-1.365c.072-.202.112-.41.123-.614z"/></g><defs><clipPath id="a"><path d="M0 0h24v24H0z"/></clipPath></defs></svg>
